images/3235229.svg

<?xml version="1.0" encoding="UTF-8"?>
<svg xmlns="http://www.w3.org/2000/svg" xmlns:xlink="http://www.w3.org/1999/xlink" width="300pt" height="300pt" viewBox="0 0 300 300" version="1.1">
<defs>
<g>
<symbol overflow="visible" id="glyph0-0">
<path style="stroke:none;" d="M 0.640625 2.296875 L 0.640625 -9.171875 L 7.140625 -9.171875 L 7.140625 2.296875 Z M 1.375 1.578125 L 6.421875 1.578125 L 6.421875 -8.4375 L 1.375 -8.4375 Z M 1.375 1.578125 "/>
</symbol>
<symbol overflow="visible" id="glyph0-1">
<path style="stroke:none;" d="M 5.125 -8.609375 C 4.1875 -8.609375 3.441406 -8.257812 2.890625 -7.5625 C 2.347656 -6.875 2.078125 -5.929688 2.078125 -4.734375 C 2.078125 -3.535156 2.347656 -2.585938 2.890625 -1.890625 C 3.441406 -1.203125 4.1875 -0.859375 5.125 -0.859375 C 6.050781 -0.859375 6.785156 -1.203125 7.328125 -1.890625 C 7.878906 -2.585938 8.15625 -3.535156 8.15625 -4.734375 C 8.15625 -5.929688 7.878906 -6.875 7.328125 -7.5625 C 6.785156 -8.257812 6.050781 -8.609375 5.125 -8.609375 Z M 5.125 -9.65625 C 6.445312 -9.65625 7.503906 -9.207031 8.296875 -8.3125 C 9.097656 -7.414062 9.5 -6.222656 9.5 -4.734375 C 9.5 -3.234375 9.097656 -2.035156 8.296875 -1.140625 C 7.503906 -0.253906 6.445312 0.1875 5.125 0.1875 C 3.789062 0.1875 2.722656 -0.253906 1.921875 -1.140625 C 1.128906 -2.035156 0.734375 -3.234375 0.734375 -4.734375 C 0.734375 -6.222656 1.128906 -7.414062 1.921875 -8.3125 C 2.722656 -9.207031 3.789062 -9.65625 5.125 -9.65625 Z M 5.125 -9.65625 "/>
</symbol>
<symbol overflow="visible" id="glyph0-2">
<path style="stroke:none;" d="M 1.28125 -9.484375 L 3 -9.484375 L 7.203125 -1.546875 L 7.203125 -9.484375 L 8.453125 -9.484375 L 8.453125 0 L 6.71875 0 L 2.515625 -7.921875 L 2.515625 0 L 1.28125 0 Z M 1.28125 -9.484375 "/>
</symbol>
</g>
</defs>
<g id="surface50205">
<rect x="0" y="0" width="300" height="300" style="fill:rgb(100%,100%,100%);fill-opacity:1;stroke:none;"/>
<path style="fill:none;stroke-width:1.2;stroke-linecap:butt;stroke-linejoin:miter;stroke:rgb(0%,0%,0%);stroke-opacity:1;stroke-miterlimit:10;" d="M 264.75 154.226562 L 251.988281 143.933594 "/>
<path style="fill:none;stroke-width:1.2;stroke-linecap:butt;stroke-linejoin:miter;stroke:rgb(100%,0%,0%);stroke-opacity:1;stroke-miterlimit:10;" d="M 251.988281 143.933594 L 239.230469 133.644531 "/>
<path style="fill:none;stroke-width:1.2;stroke-linecap:butt;stroke-linejoin:miter;stroke:rgb(100%,0%,0%);stroke-opacity:1;stroke-miterlimit:10;" d="M 239.230469 133.644531 L 223.9375 139.546875 "/>
<path style="fill:none;stroke-width:1.2;stroke-linecap:butt;stroke-linejoin:miter;stroke:rgb(0%,0%,0%);stroke-opacity:1;stroke-miterlimit:10;" d="M 223.9375 139.546875 L 208.640625 145.453125 "/>
<path style=" stroke:none;fill-rule:nonzero;fill:rgb(100%,100%,100%);fill-opacity:1;" d="M 234.230469 125.644531 L 245.230469 125.644531 L 245.230469 141.644531 L 234.230469 141.644531 Z M 234.230469 125.644531 "/>
<g style="fill:rgb(100%,0%,0%);fill-opacity:1;">
  <use xlink:href="#glyph0-1" x="234.230469" y="138.020508"/>
</g>
<path style="fill:none;stroke-width:1.2;stroke-linecap:butt;stroke-linejoin:miter;stroke:rgb(0%,0%,0%);stroke-opacity:1;stroke-miterlimit:10;" d="M 208.640625 145.453125 L 203.574219 177.84375 "/>
<path style="fill:none;stroke-width:1.2;stroke-linecap:butt;stroke-linejoin:miter;stroke:rgb(0%,0%,0%);stroke-opacity:1;stroke-miterlimit:10;" d="M 200.511719 147.5 L 196.460938 173.414062 "/>
<path style="fill:none;stroke-width:1.2;stroke-linecap:butt;stroke-linejoin:miter;stroke:rgb(0%,0%,0%);stroke-opacity:1;stroke-miterlimit:10;" d="M 183.121094 124.867188 L 208.640625 145.453125 "/>
<path style="fill:none;stroke-width:1.2;stroke-linecap:butt;stroke-linejoin:miter;stroke:rgb(0%,0%,0%);stroke-opacity:1;stroke-miterlimit:10;" d="M 203.574219 177.84375 L 172.988281 189.65625 "/>
<path style="fill:none;stroke-width:1.2;stroke-linecap:butt;stroke-linejoin:miter;stroke:rgb(0%,0%,0%);stroke-opacity:1;stroke-miterlimit:10;" d="M 172.988281 189.65625 L 147.464844 169.070312 "/>
<path style="fill:none;stroke-width:1.2;stroke-linecap:butt;stroke-linejoin:miter;stroke:rgb(0%,0%,0%);stroke-opacity:1;stroke-miterlimit:10;" d="M 175.277344 181.589844 L 154.863281 165.121094 "/>
<path style="fill:none;stroke-width:1.2;stroke-linecap:butt;stroke-linejoin:miter;stroke:rgb(0%,0%,0%);stroke-opacity:1;stroke-miterlimit:10;" d="M 147.464844 169.070312 L 152.535156 136.675781 "/>
<path style="fill:none;stroke-width:1.2;stroke-linecap:butt;stroke-linejoin:miter;stroke:rgb(0%,0%,0%);stroke-opacity:1;stroke-miterlimit:10;" d="M 152.535156 136.675781 L 183.121094 124.867188 "/>
<path style="fill:none;stroke-width:1.2;stroke-linecap:butt;stroke-linejoin:miter;stroke:rgb(0%,0%,0%);stroke-opacity:1;stroke-miterlimit:10;" d="M 158.371094 142.691406 L 182.839844 133.246094 "/>
<path style="fill:none;stroke-width:1.2;stroke-linecap:butt;stroke-linejoin:miter;stroke:rgb(0%,0%,0%);stroke-opacity:1;stroke-miterlimit:10;" d="M 152.535156 136.675781 L 127.011719 116.089844 "/>
<path style="fill:none;stroke-width:1.2;stroke-linecap:butt;stroke-linejoin:miter;stroke:rgb(0%,0%,0%);stroke-opacity:1;stroke-miterlimit:10;" d="M 127.011719 116.089844 L 111.71875 121.996094 "/>
<path style="fill:none;stroke-width:1.2;stroke-linecap:butt;stroke-linejoin:miter;stroke:rgb(0%,0%,100%);stroke-opacity:1;stroke-miterlimit:10;" d="M 111.71875 121.996094 L 96.425781 127.898438 "/>
<path style="fill:none;stroke-width:1.2;stroke-linecap:butt;stroke-linejoin:miter;stroke:rgb(0%,0%,100%);stroke-opacity:1;stroke-miterlimit:10;" d="M 96.425781 127.898438 L 83.664062 117.605469 "/>
<path style="fill:none;stroke-width:1.2;stroke-linecap:butt;stroke-linejoin:miter;stroke:rgb(0%,0%,0%);stroke-opacity:1;stroke-miterlimit:10;" d="M 83.664062 117.605469 L 70.90625 107.3125 "/>
<path style="fill:none;stroke-width:1.2;stroke-linecap:butt;stroke-linejoin:miter;stroke:rgb(0%,0%,0%);stroke-opacity:1;stroke-miterlimit:10;" d="M 91.359375 160.292969 L 93.890625 144.09375 "/>
<path style="fill:none;stroke-width:1.2;stroke-linecap:butt;stroke-linejoin:miter;stroke:rgb(0%,0%,100%);stroke-opacity:1;stroke-miterlimit:10;" d="M 93.890625 144.09375 L 96.425781 127.898438 "/>
<path style=" stroke:none;fill-rule:nonzero;fill:rgb(100%,100%,100%);fill-opacity:1;" d="M 91.425781 119.898438 L 101.425781 119.898438 L 101.425781 135.898438 L 91.425781 135.898438 Z M 91.425781 119.898438 "/>
<g style="fill:rgb(0%,0%,100%);fill-opacity:1;">
  <use xlink:href="#glyph0-2" x="91.425781" y="132.274414"/>
</g>
<path style="fill:none;stroke-width:1.2;stroke-linecap:butt;stroke-linejoin:miter;stroke:rgb(0%,0%,0%);stroke-opacity:1;stroke-miterlimit:10;" d="M 74.714844 107.910156 L 77.25 91.710938 "/>
<path style="fill:none;stroke-width:1.2;stroke-linecap:butt;stroke-linejoin:miter;stroke:rgb(100%,0%,0%);stroke-opacity:1;stroke-miterlimit:10;" d="M 77.25 91.710938 L 79.78125 75.515625 "/>
<path style="fill:none;stroke-width:1.2;stroke-linecap:butt;stroke-linejoin:miter;stroke:rgb(0%,0%,0%);stroke-opacity:1;stroke-miterlimit:10;" d="M 67.09375 106.71875 L 69.628906 90.519531 "/>
<path style="fill:none;stroke-width:1.2;stroke-linecap:butt;stroke-linejoin:miter;stroke:rgb(100%,0%,0%);stroke-opacity:1;stroke-miterlimit:10;" d="M 69.628906 90.519531 L 72.160156 74.324219 "/>
<path style="fill:none;stroke-width:1.2;stroke-linecap:butt;stroke-linejoin:miter;stroke:rgb(0%,0%,0%);stroke-opacity:1;stroke-miterlimit:10;" d="M 70.90625 107.3125 L 40.316406 119.121094 "/>
<path style=" stroke:none;fill-rule:nonzero;fill:rgb(100%,100%,100%);fill-opacity:1;" d="M 70.972656 66.917969 L 81.972656 66.917969 L 81.972656 82.917969 L 70.972656 82.917969 Z M 70.972656 66.917969 "/>
<g style="fill:rgb(100%,0%,0%);fill-opacity:1;">
  <use xlink:href="#glyph0-1" x="70.972656" y="79.293945"/>
</g>
<path style="fill:none;stroke-width:1.2;stroke-linecap:butt;stroke-linejoin:miter;stroke:rgb(0%,0%,0%);stroke-opacity:1;stroke-miterlimit:10;" d="M 40.316406 119.121094 L 37.785156 135.320312 "/>
<path style="fill:none;stroke-width:1.2;stroke-linecap:butt;stroke-linejoin:miter;stroke:rgb(0%,0%,100%);stroke-opacity:1;stroke-miterlimit:10;" d="M 37.785156 135.320312 L 35.25 151.515625 "/>
<path style="fill:none;stroke-width:1.2;stroke-linecap:butt;stroke-linejoin:miter;stroke:rgb(0%,0%,0%);stroke-opacity:1;stroke-miterlimit:10;" d="M 47.433594 123.554688 L 45.40625 136.511719 "/>
<path style="fill:none;stroke-width:1.2;stroke-linecap:butt;stroke-linejoin:miter;stroke:rgb(0%,0%,100%);stroke-opacity:1;stroke-miterlimit:10;" d="M 45.40625 136.511719 L 43.378906 149.46875 "/>
<path style="fill:none;stroke-width:1.2;stroke-linecap:butt;stroke-linejoin:miter;stroke:rgb(0%,0%,100%);stroke-opacity:1;stroke-miterlimit:10;" d="M 35.25 151.515625 L 48.011719 161.808594 "/>
<path style="fill:none;stroke-width:1.2;stroke-linecap:butt;stroke-linejoin:miter;stroke:rgb(0%,0%,0%);stroke-opacity:1;stroke-miterlimit:10;" d="M 48.011719 161.808594 L 60.769531 172.101562 "/>
<path style=" stroke:none;fill-rule:nonzero;fill:rgb(100%,100%,100%);fill-opacity:1;" d="M 30.25 143.515625 L 40.25 143.515625 L 40.25 159.515625 L 30.25 159.515625 Z M 30.25 143.515625 "/>
<g style="fill:rgb(0%,0%,100%);fill-opacity:1;">
  <use xlink:href="#glyph0-2" x="30.25" y="155.891602"/>
</g>
<path style="fill:none;stroke-width:1.2;stroke-linecap:butt;stroke-linejoin:miter;stroke:rgb(0%,0%,0%);stroke-opacity:1;stroke-miterlimit:10;" d="M 60.769531 172.101562 L 55.703125 204.496094 "/>
<path style="fill:none;stroke-width:1.2;stroke-linecap:butt;stroke-linejoin:miter;stroke:rgb(0%,0%,0%);stroke-opacity:1;stroke-miterlimit:10;" d="M 67.886719 176.53125 L 63.832031 202.449219 "/>
<path style="fill:none;stroke-width:1.2;stroke-linecap:butt;stroke-linejoin:miter;stroke:rgb(0%,0%,0%);stroke-opacity:1;stroke-miterlimit:10;" d="M 91.359375 160.292969 L 60.769531 172.101562 "/>
<path style="fill:none;stroke-width:1.2;stroke-linecap:butt;stroke-linejoin:miter;stroke:rgb(0%,0%,0%);stroke-opacity:1;stroke-miterlimit:10;" d="M 55.703125 204.496094 L 68.464844 214.789062 "/>
<path style="fill:none;stroke-width:1.2;stroke-linecap:butt;stroke-linejoin:miter;stroke:rgb(0%,0%,100%);stroke-opacity:1;stroke-miterlimit:10;" d="M 68.464844 214.789062 L 81.222656 225.082031 "/>
<path style="fill:none;stroke-width:1.2;stroke-linecap:butt;stroke-linejoin:miter;stroke:rgb(0%,0%,100%);stroke-opacity:1;stroke-miterlimit:10;" d="M 81.222656 225.082031 L 96.519531 219.175781 "/>
<path style="fill:none;stroke-width:1.2;stroke-linecap:butt;stroke-linejoin:miter;stroke:rgb(0%,0%,0%);stroke-opacity:1;stroke-miterlimit:10;" d="M 96.519531 219.175781 L 111.8125 213.273438 "/>
<path style="fill:none;stroke-width:1.2;stroke-linecap:butt;stroke-linejoin:miter;stroke:rgb(0%,0%,100%);stroke-opacity:1;stroke-miterlimit:10;" d="M 81.503906 216.703125 L 93.738281 211.980469 "/>
<path style="fill:none;stroke-width:1.2;stroke-linecap:butt;stroke-linejoin:miter;stroke:rgb(0%,0%,0%);stroke-opacity:1;stroke-miterlimit:10;" d="M 93.738281 211.980469 L 105.972656 207.253906 "/>
<path style=" stroke:none;fill-rule:nonzero;fill:rgb(100%,100%,100%);fill-opacity:1;" d="M 76.222656 217.082031 L 86.222656 217.082031 L 86.222656 233.082031 L 76.222656 233.082031 Z M 76.222656 217.082031 "/>
<g style="fill:rgb(0%,0%,100%);fill-opacity:1;">
  <use xlink:href="#glyph0-2" x="76.222656" y="229.458008"/>
</g>
<path style="fill:none;stroke-width:1.2;stroke-linecap:butt;stroke-linejoin:miter;stroke:rgb(0%,0%,0%);stroke-opacity:1;stroke-miterlimit:10;" d="M 111.8125 213.273438 L 114.34375 197.074219 "/>
<path style="fill:none;stroke-width:1.2;stroke-linecap:butt;stroke-linejoin:miter;stroke:rgb(0%,0%,100%);stroke-opacity:1;stroke-miterlimit:10;" d="M 114.34375 197.074219 L 116.878906 180.878906 "/>
<path style="fill:none;stroke-width:1.2;stroke-linecap:butt;stroke-linejoin:miter;stroke:rgb(0%,0%,100%);stroke-opacity:1;stroke-miterlimit:10;" d="M 116.878906 180.878906 L 104.117188 170.585938 "/>
<path style="fill:none;stroke-width:1.2;stroke-linecap:butt;stroke-linejoin:miter;stroke:rgb(0%,0%,0%);stroke-opacity:1;stroke-miterlimit:10;" d="M 104.117188 170.585938 L 91.359375 160.292969 "/>
<path style="fill:none;stroke-width:1.2;stroke-linecap:butt;stroke-linejoin:miter;stroke:rgb(0%,0%,100%);stroke-opacity:1;stroke-miterlimit:10;" d="M 109.484375 184.824219 L 99.273438 176.589844 "/>
<path style="fill:none;stroke-width:1.2;stroke-linecap:butt;stroke-linejoin:miter;stroke:rgb(0%,0%,0%);stroke-opacity:1;stroke-miterlimit:10;" d="M 99.273438 176.589844 L 89.066406 168.355469 "/>
<path style=" stroke:none;fill-rule:nonzero;fill:rgb(100%,100%,100%);fill-opacity:1;" d="M 111.878906 172.878906 L 121.878906 172.878906 L 121.878906 188.878906 L 111.878906 188.878906 Z M 111.878906 172.878906 "/>
<g style="fill:rgb(0%,0%,100%);fill-opacity:1;">
  <use xlink:href="#glyph0-2" x="111.878906" y="185.254883"/>
</g>
</g>
</svg>

<svg xmlns="http://www.w3.org/2000/svg" xmlns:xlink="http://www.w3.org/1999/xlink" width="300pt" height="300pt" viewBox="0 0 300 300"><defs><symbol overflow="visible"><path d="M.64 2.297v-11.47h6.5v11.47zm.735-.72h5.047V-8.436H1.375zm0 0"/></symbol><symbol overflow="visible" id="a"><path d="M5.125-8.61c-.938 0-1.684.352-2.234 1.047-.542.688-.812 1.633-.812 2.83 0 1.198.27 2.147.813 2.842.55.687 1.297 1.03 2.235 1.03.926 0 1.66-.343 2.203-1.03.55-.696.828-1.645.828-2.844 0-1.196-.277-2.14-.828-2.829-.543-.695-1.277-1.046-2.203-1.046zm0-1.046c1.32 0 2.38.45 3.172 1.344.8.898 1.203 2.09 1.203 3.578 0 1.5-.402 2.7-1.203 3.593C7.504-.255 6.445.186 5.125.186c-1.336 0-2.402-.44-3.203-1.328C1.13-2.036.734-3.235.734-4.735c0-1.49.395-2.68 1.188-3.579.8-.894 1.867-1.343 3.203-1.343zm0 0"/></symbol><symbol overflow="visible" id="b"><path d="M1.28-9.484H3l4.203 7.937v-7.937h1.25V0H6.72L2.515-7.922V0H1.28zm0 0"/></symbol></defs><g><path fill="#fff" d="M0 0h300v300H0z"/><path d="M264.75 154.227l-12.762-10.293" stroke-width="1.2" stroke="#000" stroke-miterlimit="10" fill="none"/><path d="M251.988 143.934l-12.758-10.29M239.23 133.645l-15.292 5.902" stroke-width="1.2" stroke="#f00" stroke-miterlimit="10" fill="none"/><path d="M223.938 139.547l-15.297 5.906" stroke-width="1.2" stroke="#000" stroke-miterlimit="10" fill="none"/><path d="M234.23 125.645h11v16h-11zm0 0" fill="#fff"/><use xlink:href="#a" x="234.23" y="138.021" fill="#f00"/><path d="M208.64 145.453l-5.066 32.39M200.512 147.5l-4.05 25.914M183.12 124.867l25.52 20.586M203.574 177.844l-30.586 11.812M172.988 189.656l-25.523-20.586M175.277 181.59l-20.414-16.47M147.465 169.07l5.07-32.394M152.535 136.676l30.586-11.81M158.37 142.69l24.47-9.444M152.535 136.676l-25.523-20.586M127.012 116.09l-15.293 5.906" stroke-width="1.2" stroke="#000" stroke-miterlimit="10" fill="none"/><path d="M111.72 121.996l-15.294 5.902M96.426 127.898l-12.762-10.293" stroke-width="1.2" stroke="#00f" stroke-miterlimit="10" fill="none"/><path d="M83.664 117.605l-12.758-10.293M91.36 160.293l2.53-16.2" stroke-width="1.2" stroke="#000" stroke-miterlimit="10" fill="none"/><path d="M93.89 144.094l2.536-16.196" stroke-width="1.2" stroke="#00f" stroke-miterlimit="10" fill="none"/><path d="M91.426 119.898h10v16h-10zm0 0" fill="#fff"/><use xlink:href="#b" x="91.426" y="132.274" fill="#00f"/><path d="M74.715 107.91l2.535-16.2" stroke-width="1.2" stroke="#000" stroke-miterlimit="10" fill="none"/><path d="M77.25 91.71l2.53-16.194" stroke-width="1.2" stroke="#f00" stroke-miterlimit="10" fill="none"/><path d="M67.094 106.72l2.535-16.2" stroke-width="1.2" stroke="#000" stroke-miterlimit="10" fill="none"/><path d="M69.63 90.52l2.53-16.196" stroke-width="1.2" stroke="#f00" stroke-miterlimit="10" fill="none"/><path d="M70.906 107.313l-30.59 11.808" stroke-width="1.2" stroke="#000" stroke-miterlimit="10" fill="none"/><path d="M70.973 66.918h11v16h-11zm0 0" fill="#fff"/><use xlink:href="#a" x="70.973" y="79.294" fill="#f00"/><path d="M40.316 119.12l-2.53 16.2" stroke-width="1.2" stroke="#000" stroke-miterlimit="10" fill="none"/><path d="M37.785 135.32l-2.535 16.196" stroke-width="1.2" stroke="#00f" stroke-miterlimit="10" fill="none"/><path d="M47.434 123.555l-2.028 12.957" stroke-width="1.2" stroke="#000" stroke-miterlimit="10" fill="none"/><path d="M45.406 136.512L43.38 149.47M35.25 151.516l12.762 10.293" stroke-width="1.2" stroke="#00f" stroke-miterlimit="10" fill="none"/><path d="M48.012 161.81L60.77 172.1" stroke-width="1.2" stroke="#000" stroke-miterlimit="10" fill="none"/><path d="M30.25 143.516h10v16h-10zm0 0" fill="#fff"/><use xlink:href="#b" x="30.25" y="155.892" fill="#00f"/><path d="M60.77 172.102l-5.067 32.394M67.887 176.53l-4.055 25.92M91.36 160.293l-30.59 11.81M55.703 204.496l12.762 10.293" stroke-width="1.2" stroke="#000" stroke-miterlimit="10" fill="none"/><path d="M68.465 214.79l12.758 10.292M81.223 225.082l15.297-5.906" stroke-width="1.2" stroke="#00f" stroke-miterlimit="10" fill="none"/><path d="M96.52 219.176l15.293-5.903" stroke-width="1.2" stroke="#000" stroke-miterlimit="10" fill="none"/><path d="M81.504 216.703l12.234-4.723" stroke-width="1.2" stroke="#00f" stroke-miterlimit="10" fill="none"/><path d="M93.738 211.98l12.235-4.726" stroke-width="1.2" stroke="#000" stroke-miterlimit="10" fill="none"/><path d="M76.223 217.082h10v16h-10zm0 0" fill="#fff"/><use xlink:href="#b" x="76.223" y="229.458" fill="#00f"/><path d="M111.813 213.273l2.53-16.2" stroke-width="1.2" stroke="#000" stroke-miterlimit="10" fill="none"/><path d="M114.344 197.074l2.535-16.195M116.88 180.88l-12.763-10.294" stroke-width="1.2" stroke="#00f" stroke-miterlimit="10" fill="none"/><path d="M104.117 170.586L91.36 160.293" stroke-width="1.2" stroke="#000" stroke-miterlimit="10" fill="none"/><path d="M109.484 184.824l-10.21-8.234" stroke-width="1.2" stroke="#00f" stroke-miterlimit="10" fill="none"/><path d="M99.273 176.59l-10.207-8.235" stroke-width="1.2" stroke="#000" stroke-miterlimit="10" fill="none"/><path d="M111.88 172.88h10v16h-10zm0 0" fill="#fff"/><use xlink:href="#b" x="111.879" y="185.255" fill="#00f"/></g></svg>
